X:1
T:Title
%%score { ( 1 3 ) | ( 2 4 ) }
L:1/8
Q:1/4=84
M:6/8
K:Db
V:1 treble nm="Grand Piano"
V:3 treble 
V:2 bass 
V:4 bass 
V:1
 [FA]>[FA][FA] [FA]>[EG][DF] | [DG]2 [DB] [DA]2 [Fd] | .d3 .=G3 | [Ge]3- [Ge]2 [GA] | %4
w: Hubert~P.~Main * * * * *||||
 [FA]>[FB][FA] [FA]2 [FB] | [_Fc]2 B A2 [Af] | [Ae]2 [CA] .[EAc]2 [D=GB] | [CA]6 | F>FF F>GA | %9
w: |||||
[M:5/8] A2 [CG] [DF]2 |[M:1/8] [FA] |[M:3/4] B2 dd- d/c/B | [FA]4- [FA][FA] | %13
w: ||||
 [Fd]2 [Fd][EGc]- [EGc]/[DGB]/[EGA] | [DFB]2 [Gd] [DFA]2 [B,EG] | %15
w: ||
 [A,DF]2 [DA] [CA]2[K:bass] [G,CE] | [F,D]6 |] %17
w: ||
V:2
 [D,D]>[D,D][D,D] [D,D]>[D,A,][D,A,] | [B,,G,]2 [G,,G,] [D,F,]2 [D,A,] | %2
 [B,,B,]>C,D, z z/ C/[E,B,] | [A,C]3- [A,C]2 [G,C] | [D,D]2 [D,D] [D,A,]2 [D,=G,] | %5
 [C,=G,]2 [_F,G,C] [=F,C]2 [=D,_C] | [E,C]2 E, z FE, | A,,6 | %8
 [D,A,D]>[D,A,D][D,A,D] [D,A,D]>[E,A,C][F,A,D] |[M:5/8] [E,B,D]2 [A,,A,] [D,A,]2 |[M:1/8] [D,D] | %11
[M:3/4] [G,DG]2 [G,B,G][G,G]- [G,G]/-[G,CG]/[G,DG] | [D,D]4- [D,D][D,D] | %13
 [D,A,]2 [D,A,]A,,- A,,/B,,/C, | D,2 [D,B,] D,2 G,, | A,,2 .[A,,F,]2 z/ G/A,, | D,6 |] %17
V:3
 x6 | x6 | F->[EFc][DFB] [DB]>c[=Gd] | x6 | x6 | x6 | x6 | x6 | x6 |[M:5/8] x5 |[M:1/8] x | %11
[M:3/4] x6 | x6 | x6 | x6 | x5[K:bass] x | x6 |] %17
V:4
 x6 | x6 | z3 .E,3 | x6 | x6 | x6 | z3 .E,3 | x6 | x6 |[M:5/8] x5 |[M:1/8] x |[M:3/4] z2 z .B,3 | %12
 x6 | x6 | x6 | z2 z .[A,,E,]3 | x6 |] %17

